X: 149
T: Horses I Am Bringing
C: Teton Sioux band 1911-1914
N: Derived from sioux145.krn
O: South Dakota, U.S.A.
N: Teton Sioux Music by Frances Densmore, 1918
Z: transcribed to **kern format by Craig Sapp
L: 1/8
M: 2/4
Q: 1/4=58
K: A clef=bass
%%linebreak <none>
F F F E [I:setbarnb 2]| 
D> B, B, F/ F/ | 
F E D3/ B,/ | 
B, B, B, B, | 
B,< B, A, F, ||  
[M:3/4]D D/ D/ D B,/ B,/ B, B,/ B,/ ||  
[M:2/4]A, F,/ A,/ A, F,/ F,/ | 
F,3F, ||  
[M:3/4]F,6 ||  
[M:2/4]F, F F F | 
(E (3E/ F/ E/) (D B,) | 
B, F F F | 
E- (3E/ F/ E/) (D B,) | 
B, B, B,3/ B,/ | 
B, (3(B,/ C/ B,/) A, F, ||  
[M:3/4]F, D D D D B, | 
D B, B, B, A, F, ||  
[M:2/4]A, A, F,3/ F,/ | 
F,4 | 
F,2z2 |]  



